web/packages/design/src/ResourceIcon/assets/adobecreativecloud-light.svg

<svg width="72" height="72" viewBox="0 0 72 72" fill="none" xmlns="http://www.w3.org/2000/svg">
<path d="M64.5888 16.4874C59.5285 11.0286 52.3962 7.96054 44.9851 8.00038C37.7333 8.00038 30.3619 11.1083 25.6204 16.1288C24.7438 16.0491 23.8672 15.9694 23.0304 15.9694C8.80576 15.9694 0 27.9229 0 38.9998C0.039845 44.9766 2.35086 50.7143 6.4549 55.0972C10.7582 59.6794 16.7349 62.2693 23.0304 62.2693H44.9851C59.8871 62.2693 72 50.0369 72 35.0552C71.9203 28.162 69.2905 21.5477 64.5888 16.4874ZM22.5921 58.3645C12.0332 58.3645 3.50636 49.7978 3.50636 39.2389C3.50636 28.7597 11.9934 20.2328 22.5124 20.1531C27.1743 20.1531 31.7167 21.8665 35.1832 24.9744L35.2629 25.0541L43.192 33.1825C44.5069 34.5372 44.4671 36.6888 43.1123 38.0037C41.7576 39.3186 39.606 39.2787 38.2911 37.924L30.4815 29.8753C25.3813 25.4924 17.6912 26.0502 13.3082 31.1504C11.3957 33.3418 10.3597 36.1708 10.3597 39.0795C10.3597 45.7735 16.0575 51.4315 22.7914 51.4315H24.3453V51.4713C26.5766 54.5792 32.8323 58.3645 32.8323 58.3645H22.5921ZM61.72 51.5112C57.4565 55.9738 51.5595 58.4841 45.3835 58.5239C39.5263 58.5239 33.5495 55.8941 28.9673 51.3518L18.5279 40.8327C17.2131 39.478 17.2529 37.3263 18.5678 36.0115C19.2053 35.3739 20.0421 35.0552 20.9585 35.0552C21.8749 35.0552 22.7515 35.4138 23.389 36.0911L33.7886 46.4907C37.0957 49.7978 41.3193 51.6706 45.3835 51.6706C49.7266 51.6706 53.8705 49.8775 56.8589 46.6899C59.9269 43.5422 61.6403 39.3186 61.6403 34.9356C61.6403 25.9307 54.3088 18.639 45.3038 18.5992C41.8771 18.5992 39.0481 19.2765 36.259 21.2289C36.2191 21.1891 35.4621 20.711 34.6253 20.193C34.1074 19.8742 33.5495 19.5555 33.0714 19.3164C32.5932 19.0375 31.1588 18.3601 30.3221 18.0015C30.1229 17.9218 29.8439 17.8023 29.7244 17.7624H29.7642C34.0675 13.7381 39.4067 11.7857 45.3038 11.7857C58.0941 11.7857 68.4139 22.1454 68.4538 34.9356C68.4538 41.1116 66.0631 47.0884 61.72 51.5112Z" fill="black"/>
</svg>

<svg xmlns="http://www.w3.org/2000/svg" width="72" height="72" fill="none" viewBox="0 0 72 72"><path fill="#000" d="M64.589 16.487A26.56 26.56 0 0 0 44.985 8c-7.252 0-14.623 3.108-19.365 8.129-.876-.08-1.753-.16-2.59-.16C8.806 15.97 0 27.923 0 39c.04 5.978 2.35 11.715 6.455 16.098A22.7 22.7 0 0 0 23.03 62.27h21.955C59.887 62.27 72 50.037 72 35.055a27.73 27.73 0 0 0-7.411-18.568M22.592 58.365c-10.559 0-19.086-8.567-19.086-19.126 0-10.48 8.487-19.006 19.006-19.086 4.662 0 9.205 1.713 12.671 4.821l.08.08 7.929 8.128a3.403 3.403 0 0 1-.08 4.822 3.403 3.403 0 0 1-4.82-.08l-7.81-8.049c-5.1-4.383-12.79-3.825-17.174 1.275-1.912 2.192-2.948 5.02-2.948 7.93 0 6.694 5.698 12.352 12.431 12.352h1.554v.04c2.232 3.107 8.487 6.892 8.487 6.892zM61.72 51.51c-4.264 4.463-10.16 6.973-16.336 7.013-5.858 0-11.834-2.63-16.417-7.172l-10.44-10.52a3.44 3.44 0 0 1 .04-4.82c.638-.638 1.475-.957 2.392-.957s1.793.359 2.43 1.036l10.4 10.4c3.307 3.307 7.53 5.18 11.594 5.18a15.7 15.7 0 0 0 11.477-4.98 16.85 16.85 0 0 0 4.781-11.754c0-9.005-7.331-16.297-16.336-16.337-3.427 0-6.256.677-9.045 2.63-.04-.04-.797-.518-1.634-1.036a21 21 0 0 0-1.554-.877c-.478-.278-1.912-.956-2.749-1.314-.2-.08-.478-.2-.598-.24h.04c4.304-4.024 9.643-5.976 15.54-5.976 12.79 0 23.11 10.36 23.15 23.15 0 6.176-2.39 12.152-6.734 16.575"/></svg>
